assets/symbols/mulberry/bank.svg

<svg height="850.394" viewBox="0 0 850.394 850.394" width="850.394" xmlns="http://www.w3.org/2000/svg"><path d="m233.18 590.17h11.34v11.59h-11.34zm19.72 0h11.34v11.59h-11.34zm0-18.4h11.34v11.57h-11.34zm.17-19.18h11.33v11.58h-11.33zm-19.72 0h11.34v11.58h-11.34zm-.17 19.18h11.34v11.57h-11.34zm-19.72 18.4h11.34v11.59h-11.34zm0-18.4h11.34v11.57h-11.34zm.17-19.18h11.34v11.58h-11.34z" fill="#c8c8c8"/><path d="m289.92 470.08v72.89h-102.1v-72.89z" fill="#797878"/><path d="m289.92 542.97v-72.89h-102.1v72.89l-16.1 59.08h-.1v-152.65h135.36v157.22h-.21l-17.59-61.92v-1.73z" fill="#c8c8c8"/><path d="m306.98 606.62v7h-135.36v-11.57h.1l16.1-59.08h101.36v1.73l17.59 61.92zm-42.58-42.45v-11.58h-11.33v11.58zm-.16 37.59v-11.59h-11.34v11.59zm0-18.42v-11.57h-11.34v11.57zm-19.55-19.17v-11.58h-11.34v11.58zm-.17 37.59v-11.59h-11.34v11.59zm0-18.42v-11.57h-11.34v11.57zm-19.55-19.17v-11.58h-11.34v11.58zm-.17 37.59v-11.59h-11.34v11.59zm0-18.42v-11.57h-11.34v11.57z" fill="#797878"/><path d="m739.14 129.07v265.18h-627.46v-265.18zm-57.26 146.45v-107.22h-86.75v107.22zm-132.56.98v-107.22h-86.75v107.22zm-163.27-.98v-107.22h-86.74v107.22zm-132.56.98v-107.22h-86.74v107.22zm277.32 443.56v3.83h-419.13v-327.9h419.13zm-223.83-106.44v-164.22h-135.36v164.22z" fill="#f6cc4b"/><path d="m635.7 723.52v.37h-104.89v-327.9h104.89zm-22.24-199.45v-89.67h-58.11v89.67zm-.12 69.38v-40.79h-4.26v40.79zm125.54-197.46v327.9h-103.18v-327.9zm-25.02 127.84v-89.68h-58.12v89.68zm-53.49 69.74v-40.79h-4.26v40.79z" fill="#ed1e29"/><path d="m655.74 434.15h58.12v89.68h-58.12zm-100.39.25h58.11v89.67h-58.11zm-388.6-265.12h86.74v107.22h-86.74zm132.56-.98h86.74v107.22h-86.74zm163.26.98h86.75v107.22h-86.75zm132.56-.98h86.75v107.22h-86.75z" fill="#fff"/><g fill="none"><g stroke="#231f20"><g stroke-width="14"><path d="m635.7 395.99h103.18v327.9h-627.2v-327.9h419.13zm-104.89 0v324.07"/><path d="m555.35 434.4h58.11v89.67h-58.11zm100.39-.25h58.12v89.68h-58.12zm-46.66 118.51h4.26v40.79h-4.26zm47.03.12h4.26v40.79h-4.26zm-349.13 53.84v7h-135.36v-164.22h135.36z"/><path d="m187.82 542.97v-72.89h102.1v72.89h-.74z"/></g><path d="m213.63 552.59h11.34v11.58h-11.34zm19.72 0h11.34v11.58h-11.34zm19.72 0h11.33v11.58h-11.33zm-39.61 19.18h11.34v11.57h-11.34zm19.72 0h11.34v11.57h-11.34zm19.72 0h11.34v11.57h-11.34zm-39.44 18.4h11.34v11.59h-11.34zm19.72 0h11.34v11.59h-11.34zm19.72 0h11.34v11.59h-11.34z" stroke-width="5.848"/><path d="m187.82 542.97-16.1 59.08m117.46-57.35 17.59 61.92" stroke-width="14"/><path d="m635.7 401.87v321.65" stroke-width="11.697"/><path d="m111.68 129.07h627.459v265.18h-627.459z" stroke-width="14"/><path d="m166.75 169.28h86.74v107.22h-86.74zm132.56-.98h86.74v107.22h-86.74zm163.26.98h86.75v107.22h-86.75zm132.56-.98h86.75v107.22h-86.75z" stroke-width="14"/></g><path d="m0 0h850.394v850.394h-850.394z"/></g></svg>

<svg xmlns="http://www.w3.org/2000/svg" width="850.394" height="850.394" viewBox="0 0 850.394 850.394" overflow="visible"><path fill="#c8c8c8" d="M233.18 590.17h11.34v11.59h-11.34zM252.9 590.17h11.34v11.59H252.9zM252.9 571.77h11.34v11.57H252.9zM253.07 552.59h11.33v11.58h-11.33zM233.35 552.59h11.34v11.58h-11.34zM233.18 571.77h11.34v11.57h-11.34zM213.46 590.17h11.34v11.59h-11.34zM213.46 571.77h11.34v11.57h-11.34zM213.63 552.59h11.34v11.58h-11.34z"/><path fill="#797878" d="M289.92 470.08v72.89h-102.1v-72.89z"/><path fill="#c8c8c8" d="M289.92 542.97v-72.89h-102.1v72.89l-16.1 59.08h-.1V449.4h135.36v157.22h-.21l-17.59-61.92v-1.73z"/><path d="M306.98 606.62v7H171.62v-11.57h.1l16.1-59.08h101.36v1.73l17.59 61.92h.21zm-42.58-42.45v-11.58h-11.33v11.58h11.33zm-.16 37.59v-11.59H252.9v11.59h11.34zm0-18.42v-11.57H252.9v11.57h11.34zm-19.55-19.17v-11.58h-11.34v11.58h11.34zm-.17 37.59v-11.59h-11.34v11.59h11.34zm0-18.42v-11.57h-11.34v11.57h11.34zm-19.55-19.17v-11.58h-11.34v11.58h11.34zm-.17 37.59v-11.59h-11.34v11.59h11.34zm0-18.42v-11.57h-11.34v11.57h11.34z" fill="#797878"/><path d="M739.14 129.07v265.18H111.68V129.07h627.46zm-57.26 146.45V168.3h-86.75v107.22h86.75zm-132.56.98V169.28h-86.75V276.5h86.75zm-163.27-.98V168.3h-86.74v107.22h86.74zm-132.56.98V169.28h-86.74V276.5h86.74zM530.81 720.06v3.83H111.68v-327.9h419.13v324.07zM306.98 613.62V449.4H171.62v164.22h135.36z" fill="#f6cc4b"/><path d="M635.7 723.52v.37H530.81v-327.9H635.7v327.53zm-22.24-199.45V434.4h-58.11v89.67h58.11zm-.12 69.38v-40.79h-4.26v40.79h4.26zM738.88 395.99v327.9H635.7v-327.9h103.18zm-25.02 127.84v-89.68h-58.12v89.68h58.12zm-53.49 69.74v-40.79h-4.26v40.79h4.26z" fill="#ed1e29"/><path fill="#fff" d="M655.74 434.15h58.12v89.68h-58.12zM555.35 434.4h58.11v89.67h-58.11zM166.75 169.28h86.74V276.5h-86.74zM299.31 168.3h86.74v107.22h-86.74zM462.57 169.28h86.75V276.5h-86.75zM595.13 168.3h86.75v107.22h-86.75z"/><g fill="none" stroke="#231f20"><path stroke-width="14" d="M635.7 395.99h103.18v327.9h-627.2v-327.9h419.13zM530.81 395.99v324.07"/><path stroke-width="14" d="M555.35 434.4h58.11v89.67h-58.11zM655.74 434.15h58.12v89.68h-58.12zM609.08 552.66h4.26v40.79h-4.26zM656.11 552.78h4.26v40.79h-4.26zM306.98 606.62v7H171.62V449.4h135.36z"/><path stroke-width="14" d="M187.82 542.97v-72.89h102.1v72.89h-.74z"/><path stroke-width="5.848" d="M213.63 552.59h11.34v11.58h-11.34zM233.35 552.59h11.34v11.58h-11.34zM253.07 552.59h11.33v11.58h-11.33zM213.46 571.77h11.34v11.57h-11.34zM233.18 571.77h11.34v11.57h-11.34zM252.9 571.77h11.34v11.57H252.9zM213.46 590.17h11.34v11.59h-11.34zM233.18 590.17h11.34v11.59h-11.34zM252.9 590.17h11.34v11.59H252.9z"/><path stroke-width="14" d="M187.82 542.97l-16.1 59.08M289.18 544.7l17.59 61.92"/><path stroke-width="11.697" d="M635.7 401.87v321.65"/><path stroke-width="14" d="M111.68 129.07h627.459v265.18H111.68z"/><path stroke-width="14" d="M166.75 169.28h86.74V276.5h-86.74zM299.31 168.3h86.74v107.22h-86.74zM462.57 169.28h86.75V276.5h-86.75zM595.13 168.3h86.75v107.22h-86.75z"/></g><path fill="none" d="M0 0h850.394v850.394H0z"/></svg>
